X:1
T:THE DUTCHESS OF ATHOLE'S SLIPPER
T:THE DUTCHESS OF ATHOLE'S SLIPPER
T:NIEL GOW
C:NIEL GOW
%%score 1 2
L:1/8
M:4/4
K:F
V:1 treble 
V:2 bass 
V:1
|: CFAF c<FA<F | CFAF D<G TG2 | CFAF cFA<f |{d} Tc>BAG F<F TF2 :| c<f Tf2 cfaf | Tgfaf dg Tg2 | %6
 c<f Tf2 cfaf | gfaf cf Tf2 || c<f Tf2 cfaf | Tgfaf dg Tg2 | f<ad<f c<fA<f |{d} Tc>B AG F<F TF2 |] %12
V:2
|: [F,,F,]2 [C,F,A,]2 [C,F,A,]2 [C,F,A,]2 | [F,,F,]2 [C,F,A,]2 [B,,,B,,]2 [B,,D,G,]2 | %2
 [F,,F,]2 [C,F,]2 [C,F,A,]2 [C,F,]2 | [C,,C,]2 [C,E,B,]2 [F,,F,]2 [C,F,A,]2 :| %4
 [F,,F,]2 [A,CF]2 [A,CF]2 [A,CF]2 | [F,,F,]2 [A,CF]2 [B,,B,]2 [B,D]2 | %6
 [F,,F,]2 [A,CF]2 [A,CF]2 [A,CF]2 | [F,,F,]2 [A,CF]2 [A,CF]2 [A,CF]2 || %8
 [F,,F,]2 [A,CF]2 [A,CF]2 [A,CF]2 | [F,,F,]2 [A,CF]2 [B,,B,]2 [B,D]2 | %10
 [D,D]2 [A,DF]2 [A,,A,]2 [A,CF]2 | [C,,C,]2 [C,E,B,]2 [F,A,]2 [F,,F,]2 |] %12

